X:1
T:The New Wine of Canaan
T:The New Wine of Canaan
T:William J. King
T:William J. King, 1906
T:Public Domain Courtesy of the Cyber Hymnal™
T:Public Domain Courtesy of the Cyber Hymnal™
C:William J. King
Z:Public Domain
Z:Courtesy of the Cyber Hymnal™
%%score ( 1 2 ) ( 3 4 )
L:1/8
Q:1/4=95
M:4/4
K:F
V:1 treble 
V:2 treble 
V:3 bass 
V:4 bass 
V:1
 [CF]>[CG] | [FA]>[F^G] [FA]>[FB] [FA]>[C=G] [CF]>[FA] | [Fc]>[Fc] [Fd]2 [Fc]2 z2 | %3
w: 1.~I am|drink- ing at the fount- ain that will|ne- ver run dry,|
w: 2.~Oh, the|load of sin I car- ried has been|tak- en a- way,|
w: 3.~He is|will- ing, He is wait- ing now to|make your heart pure,|
 [CF]>[CF] [CF]>[CG] [FA]2 [CG]>[CF] | [EG]4 [Ec]3 [GB] | %5
w: Drink- ing of the new wine of|Ca- naan; The|
w: Now from sin I’m free Hal- le-|lu- jah, While|
w: O- pen wide the door, bid Him|en- ter; Oh,|
 [FA]>[F^G] [FA]>[FB] [FA]>[C=G] [CF]>[FA] | [Fc]2 [Fd]2 [Fc]3 [Fc] | %7
w: Sav- ior heard my plead- ing and my|anx- ious cry, I|
w: lean- ing on His lov- ing arm I|can- not stray; He|
w: hear Him, still He’s knock- ing, hear Him|still im- plore; Throw|
 [Fd]>[Fe] [Ff]>[Fd] [Fc]>[FA] F>[FB] | .[FA]2 .[EG]2 (.[CF]2 (3ABc) || %9
w: yield- ed, and the bless- èd Ho- ly|Ghost came in. * * *|
w: dwells with me, the bless- èd Ho- ly|Ghost each day. * * *|
w: o- pen wide the door, and He will|en- ter in. * * *|
"^Refrain" [Fd]>[E^c] [Fd]>[Ec] [Fd]2 [Bf]2 | [Ac]>[^G=B] [Ac]>[_Bd] [Ac]2 [FA]2 | %11
w: ||
w: Drink- ing at the fount- ain,|dai- ly at the fount- ain,|
w: ||
 .[Ec]2 .[Ec]2 .[Ec]2 .[GB]2 | (A>^G) [FA]>[=GB] [Ac]>[FA] (3(FG)A | .[DB]2 .[DB]2 .[Fd]2 .[FB]2 | %14
w: |||
w: Feast- ing on the|new * wine of Ca- naan, And * my|Sav- ior sa- tis-|
w: |||
 [FA]>[F^G] [FA]>[=GB] [Ac]>[FA] [CF]>[CG] | [FA]>[GB] [Ac]>[Bd] [Ac]2 (3(FGA) | [EG]4 F2 z2 |] %17
w: |||
w: fies my ev- ery long- ing, For I’m|dwell- ing in the land of * *|Ca- naan.|
w: |||
V:2
 x2 | x8 | x8 | x8 | x8 | x8 | x8 | x6 F3/2 x/ | x8 || x8 | x8 | x8 | F2 x6 | x8 | x8 | x8 | %16
 x4 F2 x2 |] %17
V:3
 [F,A,]>[F,B,] | [F,C]>[F,=B,] [F,C]>[F,D] [F,C]>[F,_B,] [F,A,]>F, | %2
 [F,A,]>[F,A,] [F,B,]2 [F,A,]2 z2 | [F,A,]>[F,A,] [F,A,]>[F,B,] [F,C]2 [F,B,]>[F,A,] | %4
 [C,C]4 [C,G,]3 [C,C] | [F,C]>[F,=B,] [F,C]>[F,D] [F,C]>[F,_B,] [F,A,]>F, | %6
 [F,A,]2 [F,B,]2 [F,A,]3 [F,A,] | B,>[B,C] [B,D]>B, [F,A,]>[F,A,] [D,A,]>[B,,D] | %8
 .[C,C]2 .[C,B,]2 .[F,A,]2 z2 || [B,,B,]>[B,,B,] [B,,B,]>[B,,B,] [B,,B,]2 [D,F]2 | %10
 [F,F]>[F,F] [F,F]>[F,F] [F,F]2 [F,C]2 | .[C,C]2 .[C,G,]2 .[C,G,]2 .[E,C]2 | %12
 (C>=B,) [F,C]>[F,C] [F,F]>[F,C] z2 | .[B,,F,]2 .[B,,F,]2 .[B,,B,]2 .[B,,D]2 | %14
 [F,C]>[F,=B,] [F,C]>[F,C] [F,F]>[F,C] [F,A,]>[F,B,] | [F,C]>[F,C] [F,F]>[F,F] [F,F]2 z2 | %16
 (C2 B,2) [F,A,]2 z2 |] %17
V:4
 x2 | x15/2 F,/ | x8 | x8 | x8 | x8 | x8 | B,3/2 x/ B,/ x11/2 | x8 || x8 | x8 | x8 | F,2 x6 | x8 | %14
 x8 | x8 | C,4 x4 |] %17

